rospo-icon-theme-classic-common/24x24/apps/pia-manager.svg

<svg height="24" viewBox="0 0 24 24" width="24" xmlns="http://www.w3.org/2000/svg"><path d="m12 2.5a7 6.5 0 0 0 -7 6.5 7 6.5 0 0 0  .0234375.5h-.0234375v12c0 .554.4795566 1 1.0761719 1h3.7695312l1.6152349-2h1.078124l1.615235 2h3.769531c.596615 0 1.076172-.446 1.076172-1v-12h-.02734a7 6.5 0 0 0  .02734-.5 7 6.5 0 0 0 -7-6.5z" opacity=".2"/><path d="m4 9.5c-.554 0-1 .446-1 1v7c0 .554.446 1 1 1h2c .554 0 1-.446 1-1v-7c0-.554-.446-1-1-1zm14 0c-.554 0-1 .446-1 1v7c0 .554.446 1 1 1h2c .554 0 1-.446 1-1v-7c0-.554-.446-1-1-1z" opacity=".2"/><rect fill="#358334" height="9" rx="1" width="4" x="3" y="9"/><rect fill="#358334" height="9" rx="1" width="4" x="17" y="9"/><path d="m4 9c-.554 0-1 .446-1 1v .5c0-.554.446-1 1-1h2c .554 0 1 .446 1 1v-.5c0-.554-.446-1-1-1zm14 0c-.554 0-1 .446-1 1v .5c0-.554.446-1 1-1h2c .554 0 1 .446 1 1v-.5c0-.554-.446-1-1-1z" fill="#fff" opacity=".1"/><path d="m6.0769229 9h11.8461541 1.076923v12c0 .554-.480308 1-1.076923 1h-3.769231l-1.615384-2h-1.076924l-1.6153842 2h-3.7692309c-.5966153 0-1.0769231-.446-1.0769231-1v-12z" fill="#50b24e"/><ellipse cx="12" cy="8.5" fill="#50b24e" rx="7" ry="6.5"/><path d="m12 5a4 4 0 0 0 -4 4 4 4 0 0 0  .036135.5h7.928711a4 4 0 0 0  .035154-.5 4 4 0 0 0 -4-4z" opacity=".2"/><path d="m12 5a4 3.5555556 0 0 0 -4 3.5555556 4 3.5555556 0 0 0  .036135.4444444h7.928711a4 3.5555556 0 0 0  .035154-.4444444 4 3.5555556 0 0 0 -4-3.5555556z" fill="#fff"/><circle cx="10" cy="7" fill="#3f3f3f" r="1"/><circle cx="14" cy="7" fill="#3f3f3f" r="1"/><path d="m12 11.5c-1.108 0-2 .9108-2 2.03125v.96875h-.5c-.277 0-.5.223-.5.5v3c0 .277.223.5.5.5h5c .277 0 .5-.223.5-.5v-3c0-.277-.223-.5-.5-.5h-.5v-.96875c0-1.12-.892-2.03125-2-2.03125zm0 1c .554 0 1 .446 1 1v1h-2v-1c0-.554.446-1 1-1z" opacity=".2"/><path d="m12 11c-1.108 0-2 .9108-2 2.03125v.96875h-.5c-.277 0-.5.223-.5.5v3c0 .277.223.5.5.5h5c .277 0 .5-.223.5-.5v-3c0-.277-.223-.5-.5-.5h-.5v-.96875c0-1.12-.892-2.03125-2-2.03125zm0 1c .554 0 1 .446 1 1v1h-2v-1c0-.554.446-1 1-1z" fill="#fff"/><path d="m12 2a7 6.5 0 0 0 -7 6.5 7 6.5 0 0 0  .0097656.2246094 7 6.5 0 0 1 6.9902344-6.2246094 7 6.5 0 0 1 6.986328 6.2480469 7 6.5 0 0 0  .013672-.2480469 7 6.5 0 0 0 -7-6.5zm-7 7v .5h.0234375a7 6.5 0 0 1 -.0234375-.5zm14 0a7 6.5 0 0 1 -.027344.5h.027344z" fill="#fff" opacity=".2"/></svg>

<svg xmlns="http://www.w3.org/2000/svg" width="24" height="24" version="1.1" viewBox="0 0 24 24">
 <path style="opacity:0.2" d="M 12,2.5 A 7,6.5 0 0 0 5,9 7,6.5 0 0 0 5.0234375,9.5 L 5,9.5 l 0,12 c 0,0.554 0.4795566,1 1.0761719,1 l 3.7695312,0 1.6152349,-2 1.078124,0 1.615235,2 3.769531,0 C 18.520443,22.5 19,22.054 19,21.5 l 0,-12 -0.02734,0 A 7,6.5 0 0 0 19,9 7,6.5 0 0 0 12,2.5 Z"/>
 <path style="opacity:0.2" d="m 4,9.5 c -0.554,0 -1,0.446 -1,1 l 0,7 c 0,0.554 0.446,1 1,1 l 2,0 c 0.554,0 1,-0.446 1,-1 l 0,-7 C 7,9.946 6.554,9.5 6,9.5 l -2,0 z m 14,0 c -0.554,0 -1,0.446 -1,1 l 0,7 c 0,0.554 0.446,1 1,1 l 2,0 c 0.554,0 1,-0.446 1,-1 l 0,-7 c 0,-0.554 -0.446,-1 -1,-1 l -2,0 z"/>
 <rect style="fill:#358334" width="4" height="9" x="3" y="9" rx="1" ry="1"/>
 <rect style="fill:#358334" width="4" height="9" x="17" y="9" rx="1" ry="1"/>
 <path style="opacity:0.1;fill:#ffffff" d="M 4,9 C 3.446,9 3,9.446 3,10 l 0,0.5 c 0,-0.554 0.446,-1 1,-1 l 2,0 c 0.554,0 1,0.446 1,1 L 7,10 C 7,9.446 6.554,9 6,9 L 4,9 Z m 14,0 c -0.554,0 -1,0.446 -1,1 l 0,0.5 c 0,-0.554 0.446,-1 1,-1 l 2,0 c 0.554,0 1,0.446 1,1 L 21,10 C 21,9.446 20.554,9 20,9 l -2,0 z"/>
 <path style="fill:#50b24e" d="M 6.0769229,9 17.923077,9 C 18.519692,9 19,9 19,9 l 0,12 c 0,0.554 -0.480308,1 -1.076923,1 l -3.769231,0 -1.615384,-2 -1.076924,0 -1.6153842,2 -3.7692309,0 C 5.4803076,22 4.9999998,21.554 4.9999998,21 l 0,-12 c 0,0 0.4803078,0 1.0769231,0 z"/>
 <ellipse style="fill:#50b24e" cx="12" cy="8.5" rx="7" ry="6.5"/>
 <path style="opacity:0.2" d="M 12,5 A 4,4 0 0 0 8,9 4,4 0 0 0 8.036135,9.5 l 7.928711,0 A 4,4 0 0 0 16,9 4,4 0 0 0 12,5 Z"/>
 <path style="fill:#ffffff" d="M 12,5 A 4,3.5555556 0 0 0 8,8.5555556 4,3.5555556 0 0 0 8.036135,9 l 7.928711,0 A 4,3.5555556 0 0 0 16,8.5555556 4,3.5555556 0 0 0 12,5 Z"/>
 <circle style="fill:#3f3f3f" cx="10" cy="7" r="1"/>
 <circle style="fill:#3f3f3f" cx="14" cy="7" r="1"/>
 <path style="opacity:0.2" class="ColorScheme-Text" d="m 12,11.5 c -1.108,0 -2,0.9108 -2,2.03125 L 10,14.5 9.5,14.5 C 9.223,14.5 9,14.723 9,15 l 0,3 c 0,0.277 0.223,0.5 0.5,0.5 l 5,0 c 0.277,0 0.5,-0.223 0.5,-0.5 l 0,-3 c 0,-0.277 -0.223,-0.5 -0.5,-0.5 l -0.5,0 0,-0.96875 C 14,12.41125 13.108,11.5 12,11.5 Z m 0,1 c 0.554,0 1,0.446 1,1 l 0,1 -2,0 0,-1 c 0,-0.554 0.446,-1 1,-1 z"/>
 <path style="fill:#ffffff" class="ColorScheme-Text" d="m 12,11 c -1.108,0 -2,0.9108 -2,2.03125 L 10,14 9.5,14 C 9.223,14 9,14.223 9,14.5 l 0,3 C 9,17.777 9.223,18 9.5,18 l 5,0 c 0.277,0 0.5,-0.223 0.5,-0.5 l 0,-3 C 15,14.223 14.777,14 14.5,14 L 14,14 14,13.03125 C 14,11.91125 13.108,11 12,11 Z m 0,1 c 0.554,0 1,0.446 1,1 l 0,1 -2,0 0,-1 c 0,-0.554 0.446,-1 1,-1 z"/>
 <path style="opacity:0.2;fill:#ffffff" d="M 12 2 A 7 6.5 0 0 0 5 8.5 A 7 6.5 0 0 0 5.0097656 8.7246094 A 7 6.5 0 0 1 12 2.5 A 7 6.5 0 0 1 18.986328 8.7480469 A 7 6.5 0 0 0 19 8.5 A 7 6.5 0 0 0 12 2 z M 5 9 L 5 9.5 L 5.0234375 9.5 A 7 6.5 0 0 1 5 9 z M 19 9 A 7 6.5 0 0 1 18.972656 9.5 L 19 9.5 L 19 9 z"/>
</svg>
